picto/stairs-up-right.svg

<svg class="color-immutable" width="24" height="24" viewBox="0 0 24 24" fill="none" xmlns="http://www.w3.org/2000/svg"><path d="M0 22.5V1.5C0 0.675 0.675 0 1.5 0H22.5C23.325 0 24 0.675 24 1.5V22.5C24 23.325 23.325 24 22.5 24H1.5C0.675 24 0 23.325 0 22.5Z" fill="#2D327D"/><path d="M6.266 5.636C5.542 5.636 4.953 5.048 4.953 4.323C4.953 3.599 5.541 3.011 6.266 3.011C6.991 3.011 7.578 3.599 7.578 4.323C7.578 5.048 6.99 5.636 6.266 5.636Z" fill="white"/><path d="M4.94898 16.21V8.587L4.12398 9.675V12.375C4.12398 12.644 3.90598 12.862 3.63598 12.862C3.36698 12.862 3.14798 12.644 3.14798 12.375V9.289C3.14798 9.125 3.20198 8.966 3.30098 8.836L4.87798 6.757C5.16098 6.383 5.60398 6.164 6.07298 6.164C6.90098 6.164 7.57298 6.836 7.57298 7.664V12.939L9.11598 14.482C9.25698 14.623 9.33598 14.813 9.33598 15.012V19.257C9.33598 19.64 9.02498 19.951 8.64198 19.951C8.25898 19.951 7.94798 19.64 7.94798 19.257V15.488L6.44798 13.988V16.225C6.44798 16.369 6.40598 16.511 6.32798 16.632L3.94698 20.317C3.81898 20.515 3.59998 20.634 3.36398 20.634C2.98098 20.634 2.66998 20.323 2.66998 19.94C2.66998 19.806 2.70798 19.676 2.78098 19.564L4.94898 16.21Z" fill="white"/><path d="M9.28101 11.604C9.22201 11.604 9.16401 11.594 9.10901 11.574L8.21301 11.249V10.172L9.45401 10.621C9.65401 10.693 9.78801 10.884 9.78801 11.097C9.78701 11.377 9.56001 11.604 9.28101 11.604Z" fill="white"/><path d="M17.587 18.225H14.174V19.612H10.762V21H6.67401V20.325H10.087V18.937H13.499V17.55H16.912V16.162H20.999V16.837H17.587V18.225Z" fill="white"/></svg>

<svg class="color-immutable" width="24" height="24" viewBox="0 0 24 24" fill="none" xmlns="http://www.w3.org/2000/svg"><g clip-path="url(#a)"><path d="M0 22.5v-21C0 .675.675 0 1.5 0h21c.825 0 1.5.675 1.5 1.5v21c0 .825-.675 1.5-1.5 1.5h-21C.675 24 0 23.325 0 22.5Z" fill="#2D327D"/><path d="M6.266 5.636a1.313 1.313 0 1 1 0-2.624 1.313 1.313 0 0 1 0 2.624ZM4.949 16.21V8.587l-.825 1.088v2.7a.487.487 0 0 1-.976 0V9.289c0-.164.054-.323.153-.453l1.577-2.079a1.499 1.499 0 0 1 2.695.907v5.275l1.543 1.543c.141.141.22.331.22.53v4.245a.694.694 0 0 1-1.388 0v-3.769l-1.5-1.5v2.237a.753.753 0 0 1-.12.407l-2.381 3.685a.693.693 0 0 1-1.166-.753l2.168-3.354Z" fill="#fff"/><path d="M9.281 11.604a.502.502 0 0 1-.172-.03l-.896-.325v-1.077l1.241.449a.506.506 0 0 1-.173.983ZM17.587 18.225h-3.413v1.387h-3.412V21H6.674v-.675h3.413v-1.388h3.412V17.55h3.413v-1.388h4.087v.675h-3.412v1.388Z" fill="#fff"/></g><defs><clipPath id="a"><path fill="#fff" d="M0 0h24v24H0z"/></clipPath></defs></svg>
